wanita.svg

<svg xmlns="http://www.w3.org/2000/svg" width="103" height="94" fill="none" xmlns:v="https://vecta.io/nano"><rect x=".25" y=".25" width="102.5" height="93.5" rx="6.75" stroke="#dbdbdb" stroke-width=".5"/><g clip-path="url(#A)"><path d="M67 27.9703C67 19.7021 60.2849 13 51.9994 13S37 19.7021 37 27.9703c0 7.1959 5.0874 13.2049 11.8668 14.6427v7.4353c0 .3231-.2617.5832-.5842.5832h-1.1824c-1.731 0-3.1348 1.4-3.1348 3.1276 0 .8638.3512 1.6463.9183 2.2111s1.3499.9166 2.2165.9166h1.1824c.3225 0 .5842.26.5842.5831v2.4002c0 1.7276 1.4028 3.1276 3.1326 3.1276.8655 0 1.6495-.3506 2.2166-.9165s.9183-1.3473.9183-2.2111v-2.4002c0-.3231.2617-.5831.5843-.5831h1.1823c1.731 0 3.1337-1.4 3.1337-3.1277 0-.8638-.3512-1.6463-.9183-2.2111s-1.351-.9165-2.2154-.9165h-1.1823c-.3226 0-.5843-.2601-.5843-.5832V42.613C61.9137 41.1752 67 35.1662 67 27.9703zm-15.0006 9.0599c-5.0128 0-9.0763-4.0556-9.0763-9.0599s4.0635-9.0587 9.0763-9.0587 9.0775 4.0556 9.0775 9.0587-4.0635 9.0599-9.0775 9.0599z" fill="#fe7ab6"/><g fill="#fe5ca7"><path d="M53.2896 56.9568c-.3225 0-.5843.3162-.5843.6393v2.2764c0 .865-.3512 1.6463-.9183 2.2111-.2846.2842-.6233.5144-.9998.6725.3731.157.7829.2441 1.2133.2441.8656 0 1.6496-.3506 2.2166-.9166s.9183-1.3472.9183-2.2111v-2.4001c0-.2246.1263-.4182.3111-.5156-.3329-.0252-2.1569 0-2.1569 0zm5.8279-5.4079c-.5659-.5671-1.3511-.9165-2.2154-.9165h-1.1824c-.3225 0-.5842-.2612-.5842-.5831V42.575l-.9964.0893c-.8058.0516-1.4326.7218-1.4326 1.5272v7.8672c0 .3197.2583.5832.5786.5832l1.4681-.0206 1.4429.016c1.3132.1398 2.0685 1.1227 1.8045 2.4288-.1423.7011-.5441 1.4241-1.2179 1.7345-.0769.0355-.1561.0653-.2376.0871h.2938c1.7138 0 3.159-1.3473 3.1969-3.0566.0184-.8902-.3352-1.7013-.9183-2.2822zM51.9994 13c-2.4668 0-4.7959.5946-6.8483 1.6486 1.4142-.4411 2.9191-.6794 4.4779-.6794 8.2843 0 14.9995 6.7021 14.9995 14.9704 0 5.8039-3.3082 10.8356-8.1454 13.3194 6.0929-1.9018 10.5157-7.5797 10.5157-14.2898C67 19.7021 60.2849 13 51.9994 13z"/></g></g><path d="M41.468 68.076L37.436 81h-1.728l-3.15-9.585c-.072-.192-.135-.423-.189-.693l-.189.693L28.994 81h-1.719l-4.032-12.924h1.602c.168 0 .309.042.423.126.114.078.189.186.225.324l2.547 8.649c.048.168.09.351.126.549l.126.621.126-.621.162-.549 2.916-8.649c.036-.12.111-.225.225-.315.12-.09.261-.135.423-.135h.549c.168 0 .306.042.414.126s.186.192.234.324l2.907 8.649c.108.33.204.705.288 1.125l.234-1.125 2.556-8.649c.03-.12.105-.225.225-.315s.261-.135.423-.135h1.494zm5.345 8.865c-.714.024-1.32.081-1.818.171-.498.084-.903.198-1.215.342s-.537.315-.675.513c-.138.192-.207.408-.207.648 0 .228.036.426.108.594.078.162.18.297.306.405.132.102.285.177.459.225s.363.072.567.072c.27 0 .516-.027.738-.081.228-.054.441-.129.639-.225.198-.102.387-.225.567-.369s.357-.309.531-.495v-1.8zm-5.148-3.807c.51-.486 1.062-.849 1.656-1.089.6-.24 1.257-.36 1.971-.36.522 0 .984.087 1.386.261.402.168.741.405 1.017.711s.483.672.621 1.098c.144.426.216.897.216 1.413V81h-.783c-.174 0-.306-.027-.396-.081-.09-.06-.162-.168-.216-.324l-.189-.801c-.234.216-.465.408-.693.576-.228.162-.468.303-.72.423-.246.114-.51.201-.792.261s-.594.09-.936.09c-.36 0-.699-.048-1.017-.144-.312-.102-.585-.255-.819-.459s-.42-.459-.558-.765c-.132-.306-.198-.663-.198-1.071 0-.36.096-.705.288-1.035.198-.336.516-.636.954-.9.444-.264 1.02-.48 1.728-.648.714-.168 1.59-.264 2.628-.288v-.666c0-.69-.147-1.206-.441-1.548s-.726-.513-1.296-.513c-.384 0-.708.048-.972.144-.258.096-.483.204-.675.324l-.495.315c-.138.096-.282.144-.432.144-.12 0-.225-.033-.315-.099-.084-.066-.153-.144-.207-.234l-.315-.567zm10.8634-.009c.198-.21.405-.402.621-.576s.444-.321.684-.441c.246-.126.507-.222.783-.288.282-.072.582-.108.9-.108.504 0 .945.084 1.323.252.384.168.705.405.963.711.258.3.453.663.585 1.089s.198.897.198 1.413V81h-1.764v-5.823c0-.654-.15-1.161-.45-1.521-.3-.366-.759-.549-1.377-.549-.45 0-.873.108-1.269.324-.39.21-.753.498-1.089.864V81h-1.755v-9.144h1.053c.246 0 .399.117.459.351l.135.918zm10.2613-1.269V81h-1.755v-9.144h1.755zm.333-2.826c0 .162-.033.318-.099.468-.066.144-.156.273-.27.387-.108.108-.237.195-.387.261-.15.06-.306.09-.468.09s-.315-.03-.459-.09c-.144-.066-.273-.153-.387-.261-.108-.114-.195-.243-.261-.387-.06-.15-.09-.306-.09-.468 0-.168.03-.324.09-.468.066-.15.153-.279.261-.387.114-.114.243-.201.387-.261.144-.066.297-.099.459-.099s.318.033.468.099c.15.06.279.147.387.261.114.108.204.237.27.387.066.144.099.3.099.468zm5.07 12.114c-.738 0-1.308-.207-1.71-.621-.396-.414-.594-1.005-.594-1.773v-5.472h-1.062c-.102 0-.189-.03-.261-.09-.066-.066-.099-.162-.099-.288v-.711l1.485-.207.396-2.727c.024-.102.069-.18.135-.234.072-.06.162-.09.27-.09h.891V72h2.592v1.278h-2.592v5.355c0 .36.087.63.261.81.18.174.408.261.684.261.162 0 .3-.021.414-.063.12-.042.222-.087.306-.135l.216-.144c.06-.042.114-.063.162-.063.06 0 .105.015.135.045.036.024.072.066.108.126l.522.846c-.288.264-.63.468-1.026.612s-.807.216-1.233.216zm8.5734-4.203c-.714.024-1.32.081-1.818.171-.498.084-.903.198-1.215.342s-.537.315-.675.513c-.138.192-.207.408-.207.648 0 .228.036.426.108.594.078.162.18.297.306.405.132.102.285.177.459.225s.363.072.567.072c.27 0 .516-.027.738-.081.228-.054.441-.129.639-.225.198-.102.387-.225.567-.369s.357-.309.531-.495v-1.8zm-5.148-3.807c.51-.486 1.062-.849 1.656-1.089.6-.24 1.257-.36 1.971-.36.522 0 .984.087 1.386.261.402.168.741.405 1.017.711s.483.672.621 1.098c.144.426.216.897.216 1.413V81h-.783c-.174 0-.306-.027-.396-.081-.09-.06-.162-.168-.216-.324l-.189-.801c-.234.216-.465.408-.693.576-.228.162-.468.303-.72.423-.246.114-.51.201-.792.261s-.594.09-.936.09c-.36 0-.699-.048-1.017-.144-.312-.102-.585-.255-.819-.459s-.42-.459-.558-.765c-.132-.306-.198-.663-.198-1.071 0-.36.096-.705.288-1.035.198-.336.516-.636.954-.9.444-.264 1.02-.48 1.728-.648.714-.168 1.59-.264 2.628-.288v-.666c0-.69-.147-1.206-.441-1.548s-.726-.513-1.296-.513c-.384 0-.708.048-.972.144-.258.096-.483.204-.675.324l-.495.315c-.138.096-.282.144-.432.144-.12 0-.225-.033-.315-.099-.084-.066-.153-.144-.207-.234l-.315-.567z" fill="#161616"/><defs><clipPath id="A"><path fill="#fff" transform="translate(37 13)" d="M0 0h30v50H0z"/></clipPath></defs></svg>

<svg width="103" height="94" viewBox="0 0 103 94" fill="none" xmlns="http://www.w3.org/2000/svg">
<rect x="0.25" y="0.25" width="102.5" height="93.5" rx="6.75" stroke="#DBDBDB" stroke-width="0.5"/>
<g clip-path="url(#clip0)">
<path d="M67 27.9703C67 19.7021 60.2849 13 51.9994 13C43.7163 13 37 19.7021 37 27.9703C37 35.1662 42.0874 41.1752 48.8668 42.613V50.0483C48.8668 50.3714 48.6051 50.6315 48.2826 50.6315H47.1002C45.3692 50.6315 43.9654 52.0315 43.9654 53.7591C43.9654 54.6229 44.3166 55.4054 44.8837 55.9702C45.4496 56.5373 46.2336 56.8868 47.1002 56.8868H48.2826C48.6051 56.8868 48.8668 57.1468 48.8668 57.4699V59.8701C48.8668 61.5977 50.2696 62.9977 51.9994 62.9977C52.8649 62.9977 53.6489 62.6471 54.216 62.0812C54.7842 61.5164 55.1343 60.7339 55.1343 59.8701V57.4699C55.1343 57.1468 55.396 56.8868 55.7186 56.8868H56.9009C58.6319 56.8868 60.0346 55.4868 60.0346 53.7591C60.0346 52.8953 59.6834 52.1128 59.1163 51.548C58.5504 50.9809 57.7653 50.6315 56.9009 50.6315H55.7186C55.396 50.6315 55.1343 50.3714 55.1343 50.0483V42.613C61.9137 41.1752 67 35.1662 67 27.9703ZM51.9994 37.0302C46.9866 37.0302 42.9231 32.9746 42.9231 27.9703C42.9231 22.9672 46.9866 18.9116 51.9994 18.9116C57.0134 18.9116 61.0769 22.9672 61.0769 27.9703C61.0769 32.9746 57.0134 37.0302 51.9994 37.0302Z" fill="#FE7AB6"/>
<path d="M53.2896 56.9568C52.9671 56.9568 52.7053 57.273 52.7053 57.5961V59.8725C52.7053 60.7375 52.3541 61.5188 51.787 62.0836C51.5024 62.3678 51.1637 62.598 50.7872 62.7561C51.1603 62.9131 51.5701 63.0002 52.0005 63.0002C52.8661 63.0002 53.6501 62.6496 54.2171 62.0836C54.7853 61.5188 55.1354 60.7364 55.1354 59.8725V57.4724C55.1354 57.2478 55.2617 57.0542 55.4465 56.9568C55.1136 56.9316 53.2896 56.9568 53.2896 56.9568Z" fill="#FE5CA7"/>
<path d="M59.1175 51.5489C58.5516 50.9818 57.7664 50.6324 56.9021 50.6324H55.7197C55.3972 50.6324 55.1355 50.3712 55.1355 50.0493V42.575C55.1355 42.575 54.6924 42.6288 54.1391 42.6643C53.3333 42.7159 52.7065 43.3861 52.7065 44.1915V52.0587C52.7065 52.3784 52.9648 52.6419 53.2851 52.6419C53.7741 52.6419 54.2631 52.6213 54.7532 52.6213C55.2342 52.6213 55.7163 52.5857 56.1961 52.6373C57.5093 52.7771 58.2646 53.76 58.0006 55.0661C57.8583 55.7672 57.4565 56.4902 56.7827 56.8006C56.7058 56.8361 56.6266 56.8659 56.5451 56.8877H56.8389C58.5527 56.8877 59.9979 55.5404 60.0358 53.8311C60.0542 52.9409 59.7006 52.1298 59.1175 51.5489Z" fill="#FE5CA7"/>
<path d="M51.9994 13C49.5326 13 47.2035 13.5946 45.1511 14.6486C46.5653 14.2075 48.0702 13.9692 49.629 13.9692C57.9133 13.9692 64.6285 20.6713 64.6285 28.9396C64.6285 34.7435 61.3203 39.7752 56.4831 42.259C62.576 40.3572 66.9988 34.6793 66.9988 27.9692C67 19.7021 60.2849 13 51.9994 13Z" fill="#FE5CA7"/>
</g>
<path d="M41.468 68.076L37.436 81H35.708L32.558 71.415C32.486 71.223 32.423 70.992 32.369 70.722C32.303 70.998 32.24 71.229 32.18 71.415L28.994 81H27.275L23.243 68.076H24.845C25.013 68.076 25.154 68.118 25.268 68.202C25.382 68.28 25.457 68.388 25.493 68.526L28.04 77.175C28.088 77.343 28.13 77.526 28.166 77.724C28.208 77.922 28.25 78.129 28.292 78.345C28.334 78.129 28.376 77.922 28.418 77.724C28.466 77.526 28.52 77.343 28.58 77.175L31.496 68.526C31.532 68.406 31.607 68.301 31.721 68.211C31.841 68.121 31.982 68.076 32.144 68.076H32.693C32.861 68.076 32.999 68.118 33.107 68.202C33.215 68.286 33.293 68.394 33.341 68.526L36.248 77.175C36.356 77.505 36.452 77.88 36.536 78.3C36.608 77.886 36.686 77.511 36.77 77.175L39.326 68.526C39.356 68.406 39.431 68.301 39.551 68.211C39.671 68.121 39.812 68.076 39.974 68.076H41.468ZM46.813 76.941C46.099 76.965 45.493 77.022 44.995 77.112C44.497 77.196 44.092 77.31 43.78 77.454C43.468 77.598 43.243 77.769 43.105 77.967C42.967 78.159 42.898 78.375 42.898 78.615C42.898 78.843 42.934 79.041 43.006 79.209C43.084 79.371 43.186 79.506 43.312 79.614C43.444 79.716 43.597 79.791 43.771 79.839C43.945 79.887 44.134 79.911 44.338 79.911C44.608 79.911 44.854 79.884 45.076 79.83C45.304 79.776 45.517 79.701 45.715 79.605C45.913 79.503 46.102 79.38 46.282 79.236C46.462 79.092 46.639 78.927 46.813 78.741V76.941ZM41.665 73.134C42.175 72.648 42.727 72.285 43.321 72.045C43.921 71.805 44.578 71.685 45.292 71.685C45.814 71.685 46.276 71.772 46.678 71.946C47.08 72.114 47.419 72.351 47.695 72.657C47.971 72.963 48.178 73.329 48.316 73.755C48.46 74.181 48.532 74.652 48.532 75.168V81H47.749C47.575 81 47.443 80.973 47.353 80.919C47.263 80.859 47.191 80.751 47.137 80.595L46.948 79.794C46.714 80.01 46.483 80.202 46.255 80.37C46.027 80.532 45.787 80.673 45.535 80.793C45.289 80.907 45.025 80.994 44.743 81.054C44.461 81.114 44.149 81.144 43.807 81.144C43.447 81.144 43.108 81.096 42.79 81C42.478 80.898 42.205 80.745 41.971 80.541C41.737 80.337 41.551 80.082 41.413 79.776C41.281 79.47 41.215 79.113 41.215 78.705C41.215 78.345 41.311 78 41.503 77.67C41.701 77.334 42.019 77.034 42.457 76.77C42.901 76.506 43.477 76.29 44.185 76.122C44.899 75.954 45.775 75.858 46.813 75.834V75.168C46.813 74.478 46.666 73.962 46.372 73.62C46.078 73.278 45.646 73.107 45.076 73.107C44.692 73.107 44.368 73.155 44.104 73.251C43.846 73.347 43.621 73.455 43.429 73.575C43.243 73.689 43.078 73.794 42.934 73.89C42.796 73.986 42.652 74.034 42.502 74.034C42.382 74.034 42.277 74.001 42.187 73.935C42.103 73.869 42.034 73.791 41.98 73.701L41.665 73.134ZM52.5284 73.125C52.7264 72.915 52.9334 72.723 53.1494 72.549C53.3654 72.375 53.5934 72.228 53.8334 72.108C54.0794 71.982 54.3404 71.886 54.6164 71.82C54.8984 71.748 55.1984 71.712 55.5164 71.712C56.0204 71.712 56.4614 71.796 56.8394 71.964C57.2234 72.132 57.5444 72.369 57.8024 72.675C58.0604 72.975 58.2554 73.338 58.3874 73.764C58.5194 74.19 58.5854 74.661 58.5854 75.177V81H56.8214V75.177C56.8214 74.523 56.6714 74.016 56.3714 73.656C56.0714 73.29 55.6124 73.107 54.9944 73.107C54.5444 73.107 54.1214 73.215 53.7254 73.431C53.3354 73.641 52.9724 73.929 52.6364 74.295V81H50.8814V71.856H51.9344C52.1804 71.856 52.3334 71.973 52.3934 72.207L52.5284 73.125ZM62.7897 71.856V81H61.0347V71.856H62.7897ZM63.1227 69.03C63.1227 69.192 63.0897 69.348 63.0237 69.498C62.9577 69.642 62.8677 69.771 62.7537 69.885C62.6457 69.993 62.5167 70.08 62.3667 70.146C62.2167 70.206 62.0607 70.236 61.8987 70.236C61.7367 70.236 61.5837 70.206 61.4397 70.146C61.2957 70.08 61.1667 69.993 61.0527 69.885C60.9447 69.771 60.8577 69.642 60.7917 69.498C60.7317 69.348 60.7017 69.192 60.7017 69.03C60.7017 68.862 60.7317 68.706 60.7917 68.562C60.8577 68.412 60.9447 68.283 61.0527 68.175C61.1667 68.061 61.2957 67.974 61.4397 67.914C61.5837 67.848 61.7367 67.815 61.8987 67.815C62.0607 67.815 62.2167 67.848 62.3667 67.914C62.5167 67.974 62.6457 68.061 62.7537 68.175C62.8677 68.283 62.9577 68.412 63.0237 68.562C63.0897 68.706 63.1227 68.862 63.1227 69.03ZM68.1927 81.144C67.4547 81.144 66.8847 80.937 66.4827 80.523C66.0867 80.109 65.8887 79.518 65.8887 78.75V73.278H64.8267C64.7247 73.278 64.6377 73.248 64.5657 73.188C64.4997 73.122 64.4667 73.026 64.4667 72.9V72.189L65.9517 71.982L66.3477 69.255C66.3717 69.153 66.4167 69.075 66.4827 69.021C66.5547 68.961 66.6447 68.931 66.7527 68.931H67.6437V72H70.2357V73.278H67.6437V78.633C67.6437 78.993 67.7307 79.263 67.9047 79.443C68.0847 79.617 68.3127 79.704 68.5887 79.704C68.7507 79.704 68.8887 79.683 69.0027 79.641C69.1227 79.599 69.2247 79.554 69.3087 79.506C69.3927 79.452 69.4647 79.404 69.5247 79.362C69.5847 79.32 69.6387 79.299 69.6867 79.299C69.7467 79.299 69.7917 79.314 69.8217 79.344C69.8577 79.368 69.8937 79.41 69.9297 79.47L70.4517 80.316C70.1637 80.58 69.8217 80.784 69.4257 80.928C69.0297 81.072 68.6187 81.144 68.1927 81.144ZM76.7661 76.941C76.0521 76.965 75.4461 77.022 74.9481 77.112C74.4501 77.196 74.0451 77.31 73.7331 77.454C73.4211 77.598 73.1961 77.769 73.0581 77.967C72.9201 78.159 72.8511 78.375 72.8511 78.615C72.8511 78.843 72.8871 79.041 72.9591 79.209C73.0371 79.371 73.1391 79.506 73.2651 79.614C73.3971 79.716 73.5501 79.791 73.7241 79.839C73.8981 79.887 74.0871 79.911 74.2911 79.911C74.5611 79.911 74.8071 79.884 75.0291 79.83C75.2571 79.776 75.4701 79.701 75.6681 79.605C75.8661 79.503 76.0551 79.38 76.2351 79.236C76.4151 79.092 76.5921 78.927 76.7661 78.741V76.941ZM71.6181 73.134C72.1281 72.648 72.6801 72.285 73.2741 72.045C73.8741 71.805 74.5311 71.685 75.2451 71.685C75.7671 71.685 76.2291 71.772 76.6311 71.946C77.0331 72.114 77.3721 72.351 77.6481 72.657C77.9241 72.963 78.1311 73.329 78.2691 73.755C78.4131 74.181 78.4851 74.652 78.4851 75.168V81H77.7021C77.5281 81 77.3961 80.973 77.3061 80.919C77.2161 80.859 77.1441 80.751 77.0901 80.595L76.9011 79.794C76.6671 80.01 76.4361 80.202 76.2081 80.37C75.9801 80.532 75.7401 80.673 75.4881 80.793C75.2421 80.907 74.9781 80.994 74.6961 81.054C74.4141 81.114 74.1021 81.144 73.7601 81.144C73.4001 81.144 73.0611 81.096 72.7431 81C72.4311 80.898 72.1581 80.745 71.9241 80.541C71.6901 80.337 71.5041 80.082 71.3661 79.776C71.2341 79.47 71.1681 79.113 71.1681 78.705C71.1681 78.345 71.2641 78 71.4561 77.67C71.6541 77.334 71.9721 77.034 72.4101 76.77C72.8541 76.506 73.4301 76.29 74.1381 76.122C74.8521 75.954 75.7281 75.858 76.7661 75.834V75.168C76.7661 74.478 76.6191 73.962 76.3251 73.62C76.0311 73.278 75.5991 73.107 75.0291 73.107C74.6451 73.107 74.3211 73.155 74.0571 73.251C73.7991 73.347 73.5741 73.455 73.3821 73.575C73.1961 73.689 73.0311 73.794 72.8871 73.89C72.7491 73.986 72.6051 74.034 72.4551 74.034C72.3351 74.034 72.2301 74.001 72.1401 73.935C72.0561 73.869 71.9871 73.791 71.9331 73.701L71.6181 73.134Z" fill="#161616"/>
<defs>
<clipPath id="clip0">
<rect width="30" height="50" fill="white" transform="translate(37 13)"/>
</clipPath>
</defs>
</svg>
